packages/tokens/icons/radio1/size24Px.svg

<svg viewBox="0 0 24 24" fill="none" xmlns="http://www.w3.org/2000/svg" width="1em" height="1em"><path d="M12 13C13.1046 13 14 12.1046 14 11C14 9.89543 13.1046 9 12 9C10.8954 9 10 9.89543 10 11C10 12.1046 10.8954 13 12 13ZM12 13L12 20.5" stroke="currentColor" stroke-linecap="round"/><path d="M8.78571 7.5C7.99038 8.31163 7.5 9.42322 7.5 10.6493C7.5 11.8755 7.99038 12.9871 8.78571 13.7987M15.2143 13.7987C16.0096 12.9871 16.5 11.8755 16.5 10.6493C16.5 9.42322 16.0096 8.31163 15.2143 7.5M6.64286 5C5.3173 6.39595 4.5 8.30781 4.5 10.4167C4.5 12.5255 5.3173 14.4374 6.64286 15.8333M17.3571 15.8333C18.6827 14.4374 19.5 12.5255 19.5 10.4167C19.5 8.30781 18.6827 6.39595 17.3571 5" stroke="currentColor" stroke-linecap="round"/></svg>

<svg xmlns="http://www.w3.org/2000/svg" fill="none" viewBox="0 0 24 24" width="1em" height="1em"><path stroke="currentColor" stroke-linecap="round" d="M12 13a2 2 0 1 0 0-4 2 2 0 0 0 0 4Zm0 0v7.5m-3.214-13A4.485 4.485 0 0 0 7.5 10.65c0 1.226.49 2.337 1.286 3.149m6.428 0a4.485 4.485 0 0 0 1.286-3.15c0-1.226-.49-2.337-1.286-3.149M6.643 5A7.843 7.843 0 0 0 4.5 10.417c0 2.108.817 4.02 2.143 5.416m10.714 0a7.843 7.843 0 0 0 2.143-5.416A7.84 7.84 0 0 0 17.357 5"/></svg>
